icons/mobile/24/svg/translate-active-24.svg

<svg width="24" height="24" viewBox="0 0 24 24" fill="none" xmlns="http://www.w3.org/2000/svg">
<g clip-path="url(#clip0_3874_628)">
<path d="M18.0723 16H13.8018L15.9365 10.8447L18.0723 16Z" fill="black"/>
<path fill-rule="evenodd" clip-rule="evenodd" d="M18 0C21.314 0 24 2.686 24 6V18C24 21.314 21.314 24 18 24H6C2.686 24 0 21.314 0 18V6C0 2.686 2.686 0 6 0H18ZM7.85449 2.50098C7.38286 2.50122 7.00124 2.88287 7.00098 3.35449V4.5957C5.37105 4.66271 3.74701 4.88337 2.16309 5.27734C1.6942 5.39437 1.40756 5.868 1.52344 6.33691C1.62343 6.73488 1.98008 7.00093 2.37305 7.00098C2.44296 7.00096 2.51505 6.99258 2.58496 6.97461C5.24076 6.31468 8.01565 6.15052 10.7314 6.48145C10.0365 8.24122 9.07727 9.86901 7.8584 11.2979C7.11051 10.2749 6.47667 9.17085 5.96973 8.00098H4.13477C4.76675 9.63893 5.61036 11.1706 6.65332 12.5615C6.49342 12.7144 6.33779 12.8726 6.1709 13.0195C5.38399 13.7144 4.49191 14.2546 3.54004 14.6406C3.20408 14.7766 2.97559 15.0902 2.97559 15.4521C2.9757 16.069 3.6029 16.4985 4.17383 16.2666C5.29977 15.8096 6.35418 15.1677 7.28613 14.3457C7.44893 14.2019 7.59903 14.0482 7.75684 13.9004C8.21572 14.4052 8.698 14.8918 9.21484 15.3467C9.93172 15.9806 10.7227 16.5077 11.5615 16.9297L10.3672 19.8164C10.1335 20.3803 10.5483 21.0009 11.1592 21.001C11.506 21.0008 11.8182 20.7916 11.9512 20.4717L13.0781 17.751H18.7988L19.9258 20.4717C20.0588 20.7916 20.3708 21.0009 20.7178 21.001C21.3287 21.001 21.7435 20.3803 21.5098 19.8164L21.5088 19.8154L17.2842 9.61816C17.1292 9.24418 16.7644 9.00098 16.3594 9.00098H15.5137C15.1098 9.00109 14.7448 9.24525 14.5898 9.61816L12.2383 15.2949C11.5613 14.9449 10.9111 14.5335 10.3291 14.0195C9.84322 13.5906 9.38498 13.137 8.95508 12.6602C10.4721 10.9342 11.6315 8.93566 12.4375 6.76367C12.7635 6.82967 13.0901 6.89362 13.4131 6.97461C13.877 7.09052 14.3556 6.80686 14.4736 6.33691C14.5896 5.86798 14.3038 5.39442 13.835 5.27734C12.158 4.86037 10.4359 4.63792 8.70898 4.58691V3.35449C8.70872 2.88272 8.32633 2.50098 7.85449 2.50098Z" fill="black"/>
</g>
<defs>
<clipPath id="clip0_3874_628">
<rect width="24" height="24" fill="white"/>
</clipPath>
</defs>
</svg>

<!-- This Source Code Form is subject to the terms of the Mozilla Public
   - License, v. 2.0. If a copy of the MPL was not distributed with this
   - file, You can obtain one at http://mozilla.org/MPL/2.0/. -->
<svg xmlns="http://www.w3.org/2000/svg" width="24" height="24" fill="none" viewBox="0 0 24 24">
    <g fill="#000">
        <path d="M18.072 16h-4.27l2.135-5.155z" />
        <path fill-rule="evenodd" d="M18 0a6 6 0 0 1 6 6v12a6 6 0 0 1-6 6H6a6 6 0 0 1-6-6V6a6 6 0 0 1 6-6zM7.854 2.501a.854.854 0 0 0-.853.853v1.242a24 24 0 0 0-4.838.681.876.876 0 0 0-.64 1.06.877.877 0 0 0 1.062.638 22.6 22.6 0 0 1 8.146-.494 17 17 0 0 1-2.873 4.817A17 17 0 0 1 5.97 8H4.135a19 19 0 0 0 2.518 4.56c-.16.153-.315.312-.482.459a9.2 9.2 0 0 1-2.631 1.62.88.88 0 0 0-.564.812.876.876 0 0 0 1.198.815 10.9 10.9 0 0 0 3.112-1.921c.163-.144.313-.298.47-.446.46.505.942.992 1.459 1.447a11 11 0 0 0 2.347 1.583l-1.195 2.886a.857.857 0 1 0 1.584.656l1.127-2.721h5.72l1.128 2.72a.858.858 0 0 0 1.584-.655h-.001L17.284 9.617A1 1 0 0 0 16.359 9h-.845a1 1 0 0 0-.924.617l-2.352 5.677a9.3 9.3 0 0 1-1.909-1.275 17 17 0 0 1-1.374-1.36c1.517-1.726 2.677-3.724 3.483-5.896.325.066.652.13.975.21a.875.875 0 0 0 .422-1.697c-1.677-.417-3.4-.64-5.126-.69V3.354a.854.854 0 0 0-.855-.853" clip-rule="evenodd" />
    </g>
</svg>
